static/cards/FrenchDeck/cyberwave/card_clubs_04.svg

<svg xmlns="http://www.w3.org/2000/svg" width="822" height="1122" fill="none" viewBox="0 0 822 1122"><rect width="822" height="1122" fill="#1a0033" rx="20"/><g fill="#fff066" clip-path="url(#a)"><path d="M137.898 159q-2.944 0-2.944-2.944V138.52H87.978q-2.56 0-2.56-2.304v-.896q0-1.792 1.151-3.072L135.21 73.24q1.024-1.28 2.56-1.28h1.152q2.943 0 2.944 2.944v57.344h11.776q2.943 0 2.944 2.816v.896q0 1.408-.768 2.048-.64.512-2.176.512h-11.776v17.536q0 2.944-2.944 2.944zm-2.944-26.752V82.84l-40.833 49.408zM141.309 231.337v-.004c0-11.782-9.224-21.333-20.603-21.333s-20.603 9.551-20.603 21.333c-11.379 0-20.603 9.552-20.603 21.334S88.724 274 100.103 274c10.386 0 18.977-7.957 20.397-18.305C121.92 266.043 130.511 274 140.897 274c11.379 0 20.603-9.551 20.603-21.333 0-11.64-9.002-21.102-20.191-21.33"/><rect width="5" height="33" x="118.5" y="251" rx="2.5"/><path d="M676.102 959q2.944 0 2.944 2.944v17.536h46.976q2.56 0 2.56 2.304v.896q0 1.793-1.152 3.072l-48.64 59.008c-.682.85-1.536 1.28-2.56 1.28h-1.152q-2.943 0-2.944-2.94v-57.348h-11.776q-2.943 0-2.944-2.816v-.896q0-1.408.768-2.048.64-.512 2.176-.512h11.776v-17.536q0-2.944 2.944-2.944zm2.944 26.752v49.408l40.832-49.408zM672.691 886.663v.004c0 11.782 9.224 21.333 20.603 21.333s20.603-9.551 20.603-21.333c11.379 0 20.603-9.552 20.603-21.334S725.276 844 713.897 844c-10.386 0-18.977 7.957-20.397 18.305C692.08 851.957 683.489 844 673.103 844c-11.379 0-20.603 9.551-20.603 21.333 0 11.64 9.002 21.102 20.191 21.33"/><rect width="5" height="33" x="695.5" y="867" rx="2.5" transform="rotate(-180 695.5 867)"/></g><path stroke="#fff066" stroke-width="8" d="M411.779 601.935c13.001 0 23.889 11.163 23.889 25.377v3.923l3.918.081c12.786.265 23.414 11.333 23.414 25.372 0 14.214-10.889 25.377-23.89 25.377-11.873 0-21.966-9.289-23.646-21.741h-7.928c-1.68 12.452-11.773 21.741-23.646 21.741-13.001 0-23.89-11.163-23.89-25.377s10.889-25.376 23.89-25.376h4v-4c0-14.214 10.889-25.377 23.889-25.377Z"/><path fill="#fff066" d="M408.307 664.027a3.04 3.04 0 1 1 6.082 0v30.932a3.04 3.04 0 1 1-6.082 0z"/><path stroke="#fff066" stroke-width="8" d="M579.779 439.935c13.001 0 23.889 11.163 23.889 25.377v3.923l3.918.081c12.786.265 23.414 11.333 23.414 25.372 0 14.214-10.889 25.377-23.89 25.377-11.873 0-21.966-9.289-23.646-21.741h-7.928c-1.68 12.452-11.773 21.741-23.646 21.741-13.001 0-23.89-11.163-23.89-25.377s10.889-25.376 23.89-25.376h4v-4c0-14.214 10.889-25.377 23.889-25.377Z"/><path fill="#fff066" d="M576.307 502.027a3.04 3.04 0 1 1 6.082 0v30.932a3.04 3.04 0 1 1-6.082 0z"/><path stroke="#fff066" stroke-width="8" d="M243.779 439.935c13.001 0 23.889 11.163 23.889 25.377v3.923l3.918.081c12.786.265 23.414 11.333 23.414 25.372 0 14.214-10.889 25.377-23.89 25.377-11.873 0-21.966-9.289-23.646-21.741h-7.928c-1.68 12.452-11.773 21.741-23.646 21.741-13.001 0-23.89-11.163-23.89-25.377s10.889-25.376 23.89-25.376h4v-4c0-14.214 10.889-25.377 23.889-25.377Z"/><path fill="#fff066" d="M240.307 502.027a3.04 3.04 0 1 1 6.082 0v30.932a3.04 3.04 0 1 1-6.082 0z"/><path stroke="#fff066" stroke-width="8" d="M411.779 439.935c13.001 0 23.889 11.163 23.889 25.377v3.923l3.918.081c12.786.265 23.414 11.333 23.414 25.372 0 14.214-10.889 25.377-23.89 25.377-11.873 0-21.966-9.289-23.646-21.741h-7.928c-1.68 12.452-11.773 21.741-23.646 21.741-13.001 0-23.89-11.163-23.89-25.377s10.889-25.376 23.89-25.376h4v-4c0-14.214 10.889-25.377 23.889-25.377Z"/><path fill="#fff066" d="M408.307 502.027a3.04 3.04 0 1 1 6.082 0v30.932a3.04 3.04 0 1 1-6.082 0z"/><defs><clipPath id="a"><path fill="#fff" d="M46 48h722v1022H46z"/></clipPath></defs></svg>

<svg width="822" height="1122" viewBox="0 0 822 1122" fill="none" xmlns="http://www.w3.org/2000/svg">
<rect width="822" height="1122" rx="20" fill="#1A0033"/>
<g clip-path="url(#clip0_31_1099)">
<path d="M137.898 159C135.935 159 134.954 158.019 134.954 156.056V138.52H87.9775C86.2708 138.52 85.4175 137.752 85.4175 136.216V135.32C85.4175 134.125 85.8015 133.101 86.5695 132.248L135.21 73.24C135.892 72.3867 136.746 71.96 137.77 71.96H138.922C140.884 71.96 141.866 72.9413 141.866 74.904V132.248H153.642C155.604 132.248 156.586 133.187 156.586 135.064V135.96C156.586 136.899 156.33 137.581 155.818 138.008C155.391 138.349 154.666 138.52 153.642 138.52H141.866V156.056C141.866 158.019 140.884 159 138.922 159H137.898ZM134.954 132.248V82.84L94.1215 132.248H134.954Z" fill="#FFF066"/>
<path d="M141.309 231.337C141.309 231.336 141.309 231.335 141.309 231.333C141.309 219.551 132.085 210 120.706 210C109.327 210 100.103 219.551 100.103 231.333C88.7243 231.333 79.5 240.885 79.5 252.667C79.5 264.449 88.7243 274 100.103 274C110.489 274 119.08 266.043 120.5 255.695C121.92 266.043 130.511 274 140.897 274C152.276 274 161.5 264.449 161.5 252.667C161.5 241.027 152.498 231.565 141.309 231.337Z" fill="#FFF066"/>
<rect x="118.5" y="251" width="5" height="33" rx="2.5" fill="#FFF066"/>
<path d="M676.102 959C678.065 959 679.046 959.981 679.046 961.944V979.48H726.022C727.729 979.48 728.582 980.248 728.582 981.784V982.68C728.582 983.875 728.198 984.899 727.43 985.752L678.79 1044.76C678.108 1045.61 677.254 1046.04 676.23 1046.04H675.078C673.116 1046.04 672.134 1045.06 672.134 1043.1V985.752H660.358C658.396 985.752 657.414 984.813 657.414 982.936V982.04C657.414 981.101 657.67 980.419 658.182 979.992C658.609 979.651 659.334 979.48 660.358 979.48H672.134V961.944C672.134 959.981 673.116 959 675.078 959H676.102ZM679.046 985.752V1035.16L719.878 985.752H679.046Z" fill="#FFF066"/>
<path d="M672.691 886.663C672.691 886.664 672.691 886.665 672.691 886.667C672.691 898.449 681.915 908 693.294 908C704.673 908 713.897 898.449 713.897 886.667C725.276 886.667 734.5 877.115 734.5 865.333C734.5 853.551 725.276 844 713.897 844C703.511 844 694.92 851.957 693.5 862.305C692.08 851.957 683.489 844 673.103 844C661.724 844 652.5 853.551 652.5 865.333C652.5 876.973 661.502 886.435 672.691 886.663Z" fill="#FFF066"/>
<rect x="695.5" y="867" width="5" height="33" rx="2.5" transform="rotate(-180 695.5 867)" fill="#FFF066"/>
</g>
<path d="M411.779 601.935C424.78 601.935 435.668 613.098 435.668 627.312V631.235L439.586 631.316C452.372 631.581 463 642.649 463 656.688C463 670.902 452.111 682.065 439.11 682.065C427.237 682.065 417.144 672.776 415.464 660.324H407.536C405.856 672.776 395.763 682.065 383.89 682.065C370.889 682.065 360 670.902 360 656.688C360 642.475 370.889 631.312 383.89 631.312H387.89V627.312C387.89 613.098 398.779 601.935 411.779 601.935Z" stroke="#FFF066" stroke-width="8"/>
<path d="M408.307 664.027C408.307 662.347 409.668 660.986 411.348 660.986C413.028 660.986 414.389 662.347 414.389 664.027V694.959C414.389 696.639 413.028 698 411.348 698C409.668 698 408.307 696.639 408.307 694.959V664.027Z" fill="#FFF066"/>
<path d="M579.779 439.935C592.78 439.935 603.668 451.098 603.668 465.312V469.235L607.586 469.316C620.372 469.581 631 480.649 631 494.688C631 508.902 620.111 520.065 607.11 520.065C595.237 520.065 585.144 510.776 583.464 498.324H575.536C573.856 510.776 563.763 520.065 551.89 520.065C538.889 520.065 528 508.902 528 494.688C528 480.475 538.889 469.312 551.89 469.312H555.89V465.312C555.89 451.098 566.779 439.935 579.779 439.935Z" stroke="#FFF066" stroke-width="8"/>
<path d="M576.307 502.027C576.307 500.347 577.668 498.986 579.348 498.986C581.028 498.986 582.389 500.347 582.389 502.027V532.959C582.389 534.639 581.028 536 579.348 536C577.668 536 576.307 534.639 576.307 532.959V502.027Z" fill="#FFF066"/>
<path d="M243.779 439.935C256.78 439.935 267.668 451.098 267.668 465.312V469.235L271.586 469.316C284.372 469.581 295 480.649 295 494.688C295 508.902 284.111 520.065 271.11 520.065C259.237 520.065 249.144 510.776 247.464 498.324H239.536C237.856 510.776 227.763 520.065 215.89 520.065C202.889 520.065 192 508.902 192 494.688C192 480.475 202.889 469.312 215.89 469.312H219.89V465.312C219.89 451.098 230.779 439.935 243.779 439.935Z" stroke="#FFF066" stroke-width="8"/>
<path d="M240.307 502.027C240.307 500.347 241.668 498.986 243.348 498.986C245.028 498.986 246.389 500.347 246.389 502.027V532.959C246.389 534.639 245.028 536 243.348 536C241.668 536 240.307 534.639 240.307 532.959V502.027Z" fill="#FFF066"/>
<path d="M411.779 439.935C424.78 439.935 435.668 451.098 435.668 465.312V469.235L439.586 469.316C452.372 469.581 463 480.649 463 494.688C463 508.902 452.111 520.065 439.11 520.065C427.237 520.065 417.144 510.776 415.464 498.324H407.536C405.856 510.776 395.763 520.065 383.89 520.065C370.889 520.065 360 508.902 360 494.688C360 480.475 370.889 469.312 383.89 469.312H387.89V465.312C387.89 451.098 398.779 439.935 411.779 439.935Z" stroke="#FFF066" stroke-width="8"/>
<path d="M408.307 502.027C408.307 500.347 409.668 498.986 411.348 498.986C413.028 498.986 414.389 500.347 414.389 502.027V532.959C414.389 534.639 413.028 536 411.348 536C409.668 536 408.307 534.639 408.307 532.959V502.027Z" fill="#FFF066"/>
<defs>
<clipPath id="clip0_31_1099">
<rect width="722" height="1022" fill="white" transform="translate(46 48)"/>
</clipPath>
</defs>
</svg>
